X: 27
T:The Cwmbach Quickstep
M:6/8
L:1/8
Q:130
S:Robin Huw Bowen
R:Jig
A:Wales
Z:brian_martin12345@yahoo.com
K:D
A|F2A ABA|d2AA2G|F2A Agf|efd cdB|AFD ABA|d2AA2A|!
Bed cBc|dAFD2:||F|Bae cBc|edd d2A|Aed cBA|ABcd2A|!
Agf Bec|ABcd2A|Aed cAF|DFAd2A|Aad cAa|gecd2:||
